src/assets/logos/logo-main2.svg

<svg xmlns="http://www.w3.org/2000/svg" width="562" height="475" fill="none"><path fill="#2B17DE" fill-rule="evenodd" d="M256 .27837c-2.475.21-10.125.861-17 1.447-80.802 6.89-155.647 37.20903-198.5 80.40903C16.619 106.21 2.95597 134.384 1.31297 162.942l-.619 10.75H561.306l-.619-10.75c-2.111-36.7-23.396-71.3736-61.304-99.8656C456.217 30.6324 397.731 9.74637 328.85 2.17637c-13.448-1.478-62.663-2.76-72.85-1.898ZM3.63597 192.328l-2.636 2.637v182.818l2.455 2.454 2.454 2.455H556.091l2.454-2.455 2.455-2.454V255.965l-2.636-2.637-2.637-2.636H342.273l-2.637 2.636-2.636 2.637v107.727H225V194.965l-2.636-2.637-2.637-2.636H6.27297l-2.637 2.636ZM213 286.192v84.5H13v-169h200v84.5Zm336 30.5v54H349v-108h200v54ZM156.655 417.521c-3.307 3.653-1.457 8.171 3.345 8.171 5.086 0 6.911-5.548 2.777-8.443-2.879-2.017-4.1-1.963-6.122.272Zm268.226.066c-2.015 1.632-2.201 2.293-1.337 4.75.877 2.493 1.508 2.855 4.98 2.855 3.804 0 3.99-.149 4.305-3.456.231-2.427-.198-3.841-1.441-4.75-2.401-1.755-3.751-1.631-6.507.601ZM68 439.192v22.5h8v-19h18v-7H76v-11h20v-8H68v22.5Zm71 0v22.5h8v-45h-8v22.5Zm128-.028v22.528h8v-19h18v-7h-18v-11H295.121l-.311-3.75-.31-3.75-13.75-.278-13.75-.278v22.528Zm-155.058-9.555c-7.72 2.437-11.275 7.511-11.275 16.093 0 9.72 4.882 15.557 13.908 16.626 3.992.473 5.915.155 9.202-1.522 3.562-1.818 6.223-4.604 6.223-6.516 0-.294-1.228-1.178-2.73-1.964-2.531-1.327-2.89-1.257-4.952.968-1.365 1.473-3.346 2.398-5.135 2.398-3.549 0-8.183-3.439-8.183-6.073 0-1.792.813-1.927 11.628-1.927h11.628l-.679-4.245c-1.304-8.153-5.954-12.99-13.577-14.125-1.925-.286-4.651-.157-6.058.287Zm76.33-.067c-1.225.357-3.143 1.438-4.261 2.4-2.596 2.234-3.011 2.2-3.011-.25 0-1.667-.667-2-4-2h-4v45h8v-16.94l3.64 2.47c4.284 2.908 8.528 3.136 13.34.718 5.464-2.745 8.02-7.418 8.02-14.661 0-8.023-2.288-12.39-8.036-15.337-4.522-2.319-5.875-2.514-9.692-1.4Zm34.228.614c-11.011 3.967-14.074 19.197-5.571 27.7 6.105 6.106 15.093 6.39 21.592.683 1.914-1.68 3.479-3.403 3.479-3.829 0-.427-1.332-1.327-2.959-2.001-2.595-1.075-3.29-.966-5.635.878-3.152 2.48-5.471 2.64-9.329.645-2.662-1.377-4.528-4.756-3.302-5.982.307-.307 5.433-.558 11.392-.558H243v-3.599c0-10.554-10.354-17.593-20.5-13.937Zm87 .006c-4.948 1.791-8.094 5.308-9.535 10.659-3.926 14.583 9.872 26.646 22.825 19.954 3.18-1.643 7.017-5.787 6.029-6.512-4.85-3.558-5.073-3.589-7.441-1.034-4.253 4.589-13.312 2.022-13.363-3.787-.013-1.567 1.198-1.75 11.573-1.75h11.588l-.694-4.25c-1.796-11.007-11.061-16.871-20.982-13.28Zm87.685-.511c-13.352 3.283-15.379 24.896-2.903 30.936 7.068 3.421 13.557 2.516 18.968-2.646 3.45-3.291 3.432-3.724-.209-5.232-2.595-1.075-3.29-.966-5.635.878-3.604 2.836-7.904 2.698-10.951-.35-4.84-4.84-3.673-5.545 9.175-5.545h11.63l-.52-4.614c-1.108-9.828-9.832-15.818-19.555-13.427Zm76.315.523c-3.892 1.401-8.838 6.162-7.929 7.633.249.402 1.767 1.02 3.375 1.373 2.201.484 3.434.132 4.989-1.423 3.822-3.822 11.065-1.854 11.065 3.006 0 1.709-.748 1.929-6.55 1.929-7.02 0-11.696 1.723-13.42 4.945-1.9 3.549-1.18 7.856 1.888 11.289 2.625 2.939 3.47 3.266 8.419 3.266 4.315 0 6.014-.481 7.877-2.231 2.36-2.217 2.384-2.219 4.07-.25 1.168 1.363 2.947 1.981 5.706 1.981 3.916 0 4.01-.082 4.01-3.5 0-2.833-.381-3.5-2-3.5-1.823 0-2-.667-2-7.532 0-8.452-1.677-13.578-5.166-15.794-3.619-2.298-9.829-2.814-14.334-1.192ZM156 445.692v16h8v-32h-8v16Zm182 0v16h8v-10.309c0-12.003.743-13.579 6.785-14.389 4.007-.537 4.215-.731 4.215-3.934 0-3.04-.279-3.368-2.865-3.368-1.576 0-4 .893-5.388 1.984-2.515 1.979-2.523 1.979-3.041 0-.396-1.514-1.369-1.984-4.112-1.984H338v16Zm25 0v16h8v-10.045c0-9.333.174-10.22 2.455-12.5 1.531-1.532 3.599-2.455 5.5-2.455 2.813 0 3.045-.266 3.045-3.5 0-3.186-.257-3.5-2.865-3.5-1.576 0-4.051.933-5.5 2.073L371 433.837v-2.072c0-1.752-.62-2.073-4-2.073h-4v16Zm61.667-15.333c-.367.366-.667 7.566-.667 16v15.333h8v-32h-3.333c-1.834 0-3.634.3-4 .667Zm17 0c-.367.366-.667 7.566-.667 16v15.333h8v-10.045c0-9.333.174-10.22 2.455-12.5 1.531-1.532 3.599-2.455 5.5-2.455 2.813 0 3.045-.266 3.045-3.5 0-3.222-.238-3.5-3-3.5-1.667 0-3.889.889-5 2-1.1 1.1-2.225 2-2.5 2-.275 0-.5-.9-.5-2 0-1.6-.667-2-3.333-2-1.834 0-3.634.3-4 .667Zm-319.923 7.536c.691.573 1.256 1.887 1.256 2.919 0 1.658-.819 1.878-7 1.878-4.942 0-6.995-.368-6.985-1.25.058-4.733 8.475-7.078 12.729-3.547Zm74.006 1.045c1.718 1.604 2.25 3.215 2.25 6.816 0 6.751-2.418 9.436-8.5 9.436-5.894 0-8.5-2.725-8.5-8.888 0-9.25 8.293-13.39 14.75-7.364Zm35.566-2.098c2.472 1.301 3.646 2.773 3.669 4.6.01.882-2.043 1.25-6.985 1.25-6.295 0-7-.198-7-1.968 0-1.119 1.187-2.612 2.75-3.46 3.367-1.827 4.751-1.904 7.566-.422Zm87 0c2.472 1.301 3.646 2.773 3.669 4.6.01.882-2.043 1.25-6.985 1.25s-6.995-.368-6.985-1.25c.025-2.025 1.374-3.584 4.013-4.637 3.284-1.31 3.734-1.308 6.288.037Zm89.055 1.812c2.874 2.819 1.134 4.038-5.763 4.038-7.069 0-7.976-.444-6.507-3.188 2.165-4.047 8.56-4.49 12.27-.85ZM485 450.192c0 3.147-3.882 5.626-8.305 5.305-3.555-.258-4.247-.669-4.532-2.692-.447-3.157 1.26-4.079 7.587-4.098 4.007-.011 5.25.34 5.25 1.485Z" clip-rule="evenodd"/></svg>

<svg width="562" height="475" viewBox="0 0 562 475" fill="none" xmlns="http://www.w3.org/2000/svg">
<path fill-rule="evenodd" clip-rule="evenodd" d="M256 0.278366C253.525 0.488366 245.875 1.13937 239 1.72537C158.198 8.61537 83.353 38.9344 40.5 82.1344C16.619 106.21 2.95597 134.384 1.31297 162.942L0.69397 173.692H281H561.306L560.687 162.942C558.576 126.242 537.291 91.5684 499.383 63.0764C456.217 30.6324 397.731 9.74637 328.85 2.17637C315.402 0.698366 266.187 -0.583634 256 0.278366ZM3.63597 192.328L0.99997 194.965V286.374V377.783L3.45497 380.237L5.90897 382.692H281H556.091L558.545 380.237L561 377.783V316.874V255.965L558.364 253.328L555.727 250.692H449H342.273L339.636 253.328L337 255.965V309.828V363.692H281H225V279.328V194.965L222.364 192.328L219.727 189.692H113H6.27297L3.63597 192.328ZM213 286.192V370.692H113H13V286.192V201.692H113H213V286.192ZM549 316.692V370.692H449H349V316.692V262.692H449H549V316.692ZM156.655 417.521C153.348 421.174 155.198 425.692 160 425.692C165.086 425.692 166.911 420.144 162.777 417.249C159.898 415.232 158.677 415.286 156.655 417.521ZM424.881 417.587C422.866 419.219 422.68 419.88 423.544 422.337C424.421 424.83 425.052 425.192 428.524 425.192C432.328 425.192 432.514 425.043 432.829 421.736C433.06 419.309 432.631 417.895 431.388 416.986C428.987 415.231 427.637 415.355 424.881 417.587ZM68 439.192V461.692H72H76V452.192V442.692H85H94V439.192V435.692H85H76V430.192V424.692H86H96V420.692V416.692H82H68V439.192ZM139 439.192V461.692H143H147V439.192V416.692H143H139V439.192ZM267 439.164V461.692H271H275V452.192V442.692H284H293V439.192V435.692H284H275V430.192V424.692H285.06H295.121L294.81 420.942L294.5 417.192L280.75 416.914L267 416.636V439.164ZM111.942 429.609C104.222 432.046 100.667 437.12 100.667 445.702C100.667 455.422 105.549 461.259 114.575 462.328C118.567 462.801 120.49 462.483 123.777 460.806C127.339 458.988 130 456.202 130 454.29C130 453.996 128.772 453.112 127.27 452.326C124.739 450.999 124.38 451.069 122.318 453.294C120.953 454.767 118.972 455.692 117.183 455.692C113.634 455.692 109 452.253 109 449.619C109 447.827 109.813 447.692 120.628 447.692H132.256L131.577 443.447C130.273 435.294 125.623 430.457 118 429.322C116.075 429.036 113.349 429.165 111.942 429.609ZM188.272 429.542C187.047 429.899 185.129 430.98 184.011 431.942C181.415 434.176 181 434.142 181 431.692C181 430.025 180.333 429.692 177 429.692H173V452.192V474.692H177H181V466.222V457.752L184.64 460.222C188.924 463.13 193.168 463.358 197.98 460.94C203.444 458.195 206 453.522 206 446.279C206 438.256 203.712 433.889 197.964 430.942C193.442 428.623 192.089 428.428 188.272 429.542ZM222.5 430.156C211.489 434.123 208.426 449.353 216.929 457.856C223.034 463.962 232.022 464.246 238.521 458.539C240.435 456.859 242 455.136 242 454.71C242 454.283 240.668 453.383 239.041 452.709C236.446 451.634 235.751 451.743 233.406 453.587C230.254 456.067 227.935 456.227 224.077 454.232C221.415 452.855 219.549 449.476 220.775 448.25C221.082 447.943 226.208 447.692 232.167 447.692H243V444.093C243 433.539 232.646 426.5 222.5 430.156ZM309.5 430.162C304.552 431.953 301.406 435.47 299.965 440.821C296.039 455.404 309.837 467.467 322.79 460.775C325.97 459.132 329.807 454.988 328.819 454.263C323.969 450.705 323.746 450.674 321.378 453.229C317.125 457.818 308.066 455.251 308.015 449.442C308.002 447.875 309.213 447.692 319.588 447.692H331.176L330.482 443.442C328.686 432.435 319.421 426.571 309.5 430.162ZM397.185 429.651C383.833 432.934 381.806 454.547 394.282 460.587C401.35 464.008 407.839 463.103 413.25 457.941C416.7 454.65 416.682 454.217 413.041 452.709C410.446 451.634 409.751 451.743 407.406 453.587C403.802 456.423 399.502 456.285 396.455 453.237C391.615 448.397 392.782 447.692 405.63 447.692H417.26L416.74 443.078C415.632 433.25 406.908 427.26 397.185 429.651ZM473.5 430.174C469.608 431.575 464.662 436.336 465.571 437.807C465.82 438.209 467.338 438.827 468.946 439.18C471.147 439.664 472.38 439.312 473.935 437.757C477.757 433.935 485 435.903 485 440.763C485 442.472 484.252 442.692 478.45 442.692C471.43 442.692 466.754 444.415 465.03 447.637C463.13 451.186 463.85 455.493 466.918 458.926C469.543 461.865 470.388 462.192 475.337 462.192C479.652 462.192 481.351 461.711 483.214 459.961C485.574 457.744 485.598 457.742 487.284 459.711C488.452 461.074 490.231 461.692 492.99 461.692C496.906 461.692 497 461.61 497 458.192C497 455.359 496.619 454.692 495 454.692C493.177 454.692 493 454.025 493 447.16C493 438.708 491.323 433.582 487.834 431.366C484.215 429.068 478.005 428.552 473.5 430.174ZM156 445.692V461.692H160H164V445.692V429.692H160H156V445.692ZM338 445.692V461.692H342H346V451.383C346 439.38 346.743 437.804 352.785 436.994C356.792 436.457 357 436.263 357 433.06C357 430.02 356.721 429.692 354.135 429.692C352.559 429.692 350.135 430.585 348.747 431.676C346.232 433.655 346.224 433.655 345.706 431.676C345.31 430.162 344.337 429.692 341.594 429.692H338V445.692ZM363 445.692V461.692H367H371V451.647C371 442.314 371.174 441.427 373.455 439.147C374.986 437.615 377.054 436.692 378.955 436.692C381.768 436.692 382 436.426 382 433.192C382 430.006 381.743 429.692 379.135 429.692C377.559 429.692 375.084 430.625 373.635 431.765L371 433.837V431.765C371 430.013 370.38 429.692 367 429.692H363V445.692ZM424.667 430.359C424.3 430.725 424 437.925 424 446.359V461.692H428H432V445.692V429.692H428.667C426.833 429.692 425.033 429.992 424.667 430.359ZM441.667 430.359C441.3 430.725 441 437.925 441 446.359V461.692H445H449V451.647C449 442.314 449.174 441.427 451.455 439.147C452.986 437.615 455.054 436.692 456.955 436.692C459.768 436.692 460 436.426 460 433.192C460 429.97 459.762 429.692 457 429.692C455.333 429.692 453.111 430.581 452 431.692C450.9 432.792 449.775 433.692 449.5 433.692C449.225 433.692 449 432.792 449 431.692C449 430.092 448.333 429.692 445.667 429.692C443.833 429.692 442.033 429.992 441.667 430.359ZM121.744 437.895C122.435 438.468 123 439.782 123 440.814C123 442.472 122.181 442.692 116 442.692C111.058 442.692 109.005 442.324 109.015 441.442C109.073 436.709 117.49 434.364 121.744 437.895ZM195.75 438.94C197.468 440.544 198 442.155 198 445.756C198 452.507 195.582 455.192 189.5 455.192C183.606 455.192 181 452.467 181 446.304C181 437.054 189.293 432.914 195.75 438.94ZM231.316 436.842C233.788 438.143 234.962 439.615 234.985 441.442C234.995 442.324 232.942 442.692 228 442.692C221.705 442.692 221 442.494 221 440.724C221 439.605 222.187 438.112 223.75 437.264C227.117 435.437 228.501 435.36 231.316 436.842ZM318.316 436.842C320.788 438.143 321.962 439.615 321.985 441.442C321.995 442.324 319.942 442.692 315 442.692C310.058 442.692 308.005 442.324 308.015 441.442C308.04 439.417 309.389 437.858 312.028 436.805C315.312 435.495 315.762 435.497 318.316 436.842ZM407.371 438.654C410.245 441.473 408.505 442.692 401.608 442.692C394.539 442.692 393.632 442.248 395.101 439.504C397.266 435.457 403.661 435.014 407.371 438.654ZM485 450.192C485 453.339 481.118 455.818 476.695 455.497C473.14 455.239 472.448 454.828 472.163 452.805C471.716 449.648 473.423 448.726 479.75 448.707C483.757 448.696 485 449.047 485 450.192Z" fill="#2B17DE"/>
</svg>
